X:1
T:Back to Zion, 13.13.13.14
T:Orson Pratt Hugh (1851-1932)
T:Back to Zion, 13.13.13.14
T:Public Domain
C:Orson Pratt Hugh (1851-1932)
Z:Public Domain
%%score ( 1 2 ) ( 3 4 )
L:1/8
M:2/2
K:Bb
V:1 treble 
V:2 treble 
V:3 bass 
V:4 bass 
V:1
 [DF]2 | [DB]2 [DB]2 [B,D]2 [B,E]2 | [B,F]6 [DF]2 | [EG]2 [EG]2 [EG]2 [EG]2 | [DF]2 [B,D]4 [DF]2 | %5
 [DB]2 [DB]2 [B,D]2 [B,E]2 | [B,F]6 [DF][DF] | [EG]2 [EG]2 [EG]2 [EG]2 | [DF]2 [B,D]4 [DF]2 | %9
 [EG]2 [EG]2 [EG]2 [EB]2 | [DF]2 [DF]2 [DF]3 [B,D] | [CE]2 [CE]2 [CE]2 C2 | [B,D]2 [DF]2 [FB]2 F2 | %13
 [EG]2 [EA]2 [FB]2 [Fd]2 | [Fc]4 F2 (GA) | [DB]4 (F2 E2) | [DB]6 |] %17
V:2
 x2 | x8 | x8 | x8 | x8 | x8 | x8 | x8 | x8 | x8 | x8 | x6 C2 | x6 F2 | x8 | x4 F2 E2 | x4 A4 | %16
 x6 |] %17
V:3
 [B,,B,]2 | [B,,F,]2 [B,,F,]2 [B,,F,]2 [C,F,]2 | [D,F,]6 [B,,B,]2 | %3
 [E,B,]2 [E,B,]2 [E,B,]2 [E,B,]2 | [B,,B,]2 [B,,F,]4 [B,,B,]2 | %5
 [B,,F,]2 [B,,F,]2 [B,,F,]2 [B,,F,]2 | [D,F,]6 [B,,B,][B,,B,] | [E,B,]2 [E,B,]2 [E,B,]2 [E,B,]2 | %8
 [B,,B,]2 [B,,F,]4 [B,,B,]2 | [E,B,]2 [E,B,]2 [E,B,]2 [E,G,]2 | %10
 [B,,B,]2 [B,,B,]2 [B,,B,]3 [B,,F,] | [A,,F,]2 [A,,F,]2 [A,,F,]2 [A,,F,]2 | %12
 [A,,F,]2 [B,,B,]2 [B,,D]2 [D,B,]2 | [E,B,]2 [C,C]2 [B,,D]2 [B,,B,]2 | (F,2 E,2) [D,B,]2 [E,B,]2 | %15
 [F,B,]4 (F,2 F,,2) | [B,,F,]6 |] %17
V:4
 x2 | x8 | x8 | x8 | x8 | x8 | x8 | x8 | x8 | x8 | x8 | x8 | x8 | x8 | A,4 x4 | x4 C4 | x6 |] %17

